packages/sources/icons/src/vitamix/question-line.svg

<svg width="16" height="16" viewBox="0 0 16 16" fill="none" xmlns="http://www.w3.org/2000/svg">
<path fill-rule="evenodd" clip-rule="evenodd" d="M1.33334 8C1.33334 11.682 4.318 14.6667 8 14.6667C11.682 14.6667 14.6667 11.682 14.6667 8C14.6667 4.318 11.682 1.33333 8 1.33333C4.318 1.33333 1.33334 4.318 1.33334 8ZM13.3333 8C13.3333 10.9455 10.9455 13.3333 8 13.3333C5.05448 13.3333 2.66667 10.9455 2.66667 8C2.66667 5.05448 5.05448 2.66667 8 2.66667C10.9455 2.66667 13.3333 5.05448 13.3333 8ZM8.66667 10V11.3333H7.33334V10H8.66667ZM8.6667 9.33335V8.90335C9.76246 8.57675 10.4603 7.50443 10.3151 6.37029C10.17 5.23615 9.22458 4.37415 8.08189 4.33403C6.9392 4.29392 5.93569 5.08752 5.71137 6.20869L7.01937 6.47069C7.12262 5.95414 7.60887 5.60625 8.13109 5.67532C8.65331 5.74439 9.03241 6.20673 8.99782 6.73236C8.96322 7.25799 8.5268 7.66665 8.00004 7.66669C7.63185 7.66669 7.33337 7.96516 7.33337 8.33335V9.33335H8.6667Z" fill="#001018"/>
</svg>

<svg width="16" height="16" fill="none" xmlns="http://www.w3.org/2000/svg"><path fill-rule="evenodd" clip-rule="evenodd" d="M1.333 8a6.667 6.667 0 1 0 13.333 0A6.667 6.667 0 0 0 1.333 8zm12 0A5.333 5.333 0 1 1 2.667 8a5.333 5.333 0 0 1 10.666 0zm-4.666 2v1.333H7.333V10h1.334zm0-.667v-.43A2.334 2.334 0 1 0 5.71 6.21l1.308.262A1 1 0 1 1 8 7.667a.667.667 0 0 0-.667.666v1h1.334z" fill="#001018"/></svg>
